X:54
T:John Doherty's
M:3/4
L:1/8
R:mazurka
D:Island Angel by Altan
K: Gmaj
DG|:Bc BA GB|d<g db ce|a2 ag fe|ed d2 dg|bc ba gb|d><g db ce|a2 ag fa|1 
g4 dg:|2 g3 d gb||
d2 (3def|g2 ga (3gfe|d2 dg (3fed|c2 ce dc|b2 ba gb| bc|d2 a2 fd|
ed eg (3e^ca|d^c da fd|ed de =cd|
|:bc (3bag dg|bc dg|a_b (3ag=F c=F|A_B
bc dg|fg ab (3cba|1 g2 d3c:|2 g4||
dg|:bc gb|d><g db ce|a2 ag fe|ed d2 dg|
bc ba gb|d><g db ce|a2 ag fa|1 g4 dg:|2 g3 d gb||
d2 (3def|g2 ga (3gfe|d2 dg (3fed|c2 ce dc|b2 ba gb| bc|d2 a2 fd|
ed eg (3e^ca|d^c da fd|ed de =cd|
|:bc (3bag dg|bc dg|a_b (3ag=F c=F|A_B
bc dg|fg ab (3cba|1 g2 d3c:|2 g4||
